X: 51
T:Bag of Potatoes
R:Reel
D:Chieftains
M:C
L:1/8
K:G
Bd d2 Beed| BddB{B}A2 G2| Bd d2 Beed| gabg ~a2 g2 :|
gabg ea ~a2|gabg ~e2 d2| gabg ea a2| {a}gedB A2 G2:|
